!! 00000] TT[WS
!!!OTL: Fang yang
!!!ARE: Asia, China,ÿShanxi Dingxiang
!! Ethnic Group: Han
!! WI, 52 (2)
!!!SCT: J0056
!!!YEM: Copyright 1995, estate of Helmut Schaffrath.
**kern
*ICvox
*Ivox
*M2/4
*k[f#]
*G:
{8b
8b
8dd
16dd
16ee
=1
8dd
16b
16a
8.g
16a
=2
8a
8b
8dd
16b
16a
=3
4.g
8a}
=4
{8b
8b
8dd
16dd
16b
=5
8a
8g
8b
16b
16a
=6
16e
16f#
16e
16d
4B
=7
8a
16g
16a
8b
16f#
16e
=8
2d}
==
!!!AGN: Xiaodiao. Laodong, Fangyang
!!!ONB: ESAC (Essen Associative Code) Database: CHINA
!!!AMT: simple duple
!!!AIN: vox
!!!EED: Helmut Schaffrath
!!!EEV: 1.0
*-
